img/icon-whatsapp.svg

<svg width="25" height="25" viewBox="0 0 25 25" fill="none" xmlns="http://www.w3.org/2000/svg">
<path d="M18.4986 14.3652C18.4497 14.3419 16.6272 13.4444 16.3034 13.3278C16.1711 13.2803 16.0295 13.234 15.8789 13.234C15.6327 13.234 15.426 13.3566 15.265 13.5975C15.0829 13.8682 14.5318 14.5124 14.3615 14.7049C14.3392 14.7303 14.3089 14.7606 14.2907 14.7606C14.2744 14.7606 13.9923 14.6445 13.9069 14.6074C11.9518 13.7581 10.4678 11.7158 10.2643 11.3714C10.2353 11.3219 10.2341 11.2994 10.2338 11.2994C10.241 11.2732 10.3067 11.2073 10.3406 11.1733C10.4399 11.0751 10.5474 10.9456 10.6515 10.8204C10.7008 10.761 10.7501 10.7016 10.7986 10.6456C10.9496 10.4699 11.0168 10.3336 11.0947 10.1756L11.1355 10.0936C11.3258 9.71556 11.1633 9.39658 11.1108 9.29358C11.0677 9.20738 10.2981 7.35006 10.2163 7.15494C10.0195 6.68408 9.75954 6.46484 9.39826 6.46484C9.36474 6.46484 9.39826 6.46484 9.25768 6.47076C9.0865 6.47799 8.15426 6.60071 7.7421 6.86054C7.305 7.13611 6.56555 8.01451 6.56555 9.55933C6.56555 10.9497 7.44785 12.2624 7.82667 12.7617C7.83608 12.7743 7.85338 12.7998 7.87845 12.8365C9.32918 14.9552 11.1377 16.5253 12.9711 17.2578C14.7361 17.9628 15.5719 18.0443 16.047 18.0443C16.0471 18.0443 16.0471 18.0443 16.0471 18.0443C16.2468 18.0443 16.4066 18.0286 16.5476 18.0146L16.637 18.0061C17.2467 17.9521 18.5867 17.2578 18.8916 16.4108C19.1316 15.7437 19.1949 15.0148 19.0352 14.7502C18.9257 14.5704 18.7372 14.4799 18.4986 14.3652Z" fill="#F5F4F6"/>
<path d="M12.7219 0C5.95112 0 0.442677 5.46705 0.442677 12.1869C0.442677 14.3604 1.02433 16.4879 2.1262 18.35L0.017189 24.5712C-0.0220968 24.6872 0.00712402 24.8153 0.0929195 24.9027C0.154851 24.9658 0.238862 25 0.324657 25C0.35753 25 0.390647 24.995 0.422952 24.9847L6.90997 22.9233C8.68513 23.8718 10.6915 24.3725 12.722 24.3725C19.4922 24.3725 25 18.9062 25 12.1869C25 5.46705 19.4922 0 12.7219 0ZM12.7219 21.834C10.8113 21.834 8.9607 21.2822 7.36995 20.2383C7.31647 20.2032 7.25437 20.1852 7.19187 20.1852C7.15883 20.1852 7.12572 20.1903 7.0935 20.2005L3.8439 21.2335L4.89292 18.1385C4.92685 18.0383 4.90988 17.928 4.84738 17.8425C3.63602 16.1873 2.99568 14.2317 2.99568 12.1869C2.99568 6.86688 7.35883 2.53863 12.7218 2.53863C18.0842 2.53863 22.4468 6.86688 22.4468 12.1869C22.4468 17.5063 18.0843 21.834 12.7219 21.834Z" fill="#F5F4F6"/>
</svg>

<svg width="25" height="25" fill="none" xmlns="http://www.w3.org/2000/svg"><path d="M18.499 14.365c-.05-.023-1.872-.92-2.196-1.037a1.261 1.261 0 00-.424-.094c-.246 0-.453.123-.614.364-.182.27-.733.914-.904 1.107-.022.025-.052.056-.07.056a5.62 5.62 0 01-.384-.154c-1.955-.849-3.44-2.891-3.643-3.236-.029-.05-.03-.072-.03-.072a.59.59 0 01.107-.126c.099-.098.206-.227.31-.353l.148-.174c.15-.176.218-.312.296-.47l.04-.082a.85.85 0 00-.024-.8c-.043-.087-.813-1.944-.895-2.14-.196-.47-.456-.69-.818-.69-.033 0 0 0-.14.007-.171.007-1.104.13-1.516.39-.437.275-1.176 1.154-1.176 2.698 0 1.39.882 2.703 1.26 3.203.01.012.027.038.052.074 1.451 2.12 3.26 3.69 5.093 4.422 1.765.705 2.6.786 3.076.786.2 0 .36-.015.5-.03l.09-.008c.61-.054 1.95-.748 2.255-1.595.24-.667.303-1.396.143-1.66-.11-.18-.298-.271-.536-.386z" fill="#F5F4F6"/><path d="M12.722 0C5.952 0 .442 5.467.442 12.187c0 2.173.582 4.3 1.684 6.163L.017 24.571a.324.324 0 00.406.414l6.487-2.062a12.362 12.362 0 005.812 1.45c6.77 0 12.278-5.467 12.278-12.186C25 5.467 19.492 0 12.722 0zm0 21.834a9.727 9.727 0 01-5.352-1.596.325.325 0 00-.277-.037l-3.25 1.032 1.05-3.095a.325.325 0 00-.046-.296 9.516 9.516 0 01-1.851-5.655c0-5.32 4.363-9.648 9.726-9.648 5.362 0 9.725 4.328 9.725 9.648 0 5.32-4.363 9.647-9.725 9.647z" fill="#F5F4F6"/></svg>
